X: 1
T: Beer'n Tobacco
M: 6/8
L: 1/8
R: jig
K: Gmaj
|:GG/G/G GBc|dge dcB|cBA BAG|AFD DEF|
GG/G/G GBc|dge dcB|cBA BAG|1 AFD GzD:|2 AFD GzF||
|:EE/E/E ee/e/e|cde cBA|BB/B/B BAG|AFD DEF|
EE/E/E ee/e/e|cde cBA|BB/B/B BAG|1 AFD GzF:|2 AFD GzD||
